material/.icons/material/picture-in-picture-bottom-right-outline.svg

<svg xmlns="http://www.w3.org/2000/svg" viewBox="0 0 24 24"><path d="M19 11h-8v6h8v-6m-2 4h-4v-2h4v2m4-12H3a2 2 0 00-2 2v14a2 2 0 002 2h18a2 2 0 002-2V5c0-1.12-.9-2-2-2m0 16H3V4.97h18V19z"/></svg>

<?xml version="1.0" encoding="UTF-8"?><!DOCTYPE svg PUBLIC "-//W3C//DTD SVG 1.1//EN" "http://www.w3.org/Graphics/SVG/1.1/DTD/svg11.dtd"><svg xmlns="http://www.w3.org/2000/svg" xmlns:xlink="http://www.w3.org/1999/xlink" version="1.1" id="mdi-picture-in-picture-bottom-right-outline" width="24" height="24" viewBox="0 0 24 24"><path d="M19,11H11V17H19V11M17,15H13V13H17V15M21,3H3A2,2 0 0,0 1,5V19A2,2 0 0,0 3,21H21A2,2 0 0,0 23,19V5C23,3.88 22.1,3 21,3M21,19H3V4.97H21V19Z" /></svg>
